X: 157
M:6/8
L:1/8
Q:160
K:F
|:d/2e/2|f2 A A2 d/2e/2|f2 A A2 d/2 e/2| f2 A A2 F|A3 d3|=B2 B A2 F|G2 G d2 d|=B2 B A D2|E3 D3:|

